X:1
T:Coenantibus autem illis
T:Juan de Lienas (México s.XVII) Edición: Dante Andreo-Miguel Astor
T:Coenantibus autem illis
T:Copyright © 
T:Copyright © 
T:Copyright © 
T:Copyright © 
C:Juan de Lienas (México s.XVII)
C:Edición: Dante Andreo-Miguel Astor
Z:Copyright ©
%%score [ 1 2 3 4 ]
L:1/8
Q:1/4=100
M:2/2
K:A
V:1 treble nm="SOPRANO" snm="S."
V:2 treble nm="ALTO" snm="A."
V:3 treble-8 transpose=-12 nm="TENOR" snm="T."
V:4 bass nm="BAJO" snm="B."
V:1
 E8 | A6 A2 | B4 c3 B | (A2 G2 F2 E2 | FG A4 G2) | A2 (e2- edcB | AGFE FG A2- | A2 G2) A4- | %8
w: Coe-|nan- ti-|bus au- tem|il- * * *||lis, il- * * * *||* * lis|
 A4 z4 | E8 | A6 A2 | B8 | c3 B (A3 G | FEFG AB c2- | c2 B2 A2 G2 | FG A4 GF | G4) A2 B2- | %17
w: _|coe-|nan- ti-|bus|au- tem il- *||||* lis, au-|
 BB (A2- ABcd | e2) A4 B2- | BB (e3 dcB | AG F3 E E2- | E2 ^DC D4) | E2 G2 A2 B2 | c4 B4 | %24
w: * temil- * * * * *|* lis, au-|* tem il- * * *|||lis, ac- ce- pit|Je- sus|
 A4 G2 E2 | F2 G2 A4- | A2 G2 F4 | E4 z4 | z2 A2 B2 c2 | d4 c4 | B4 A2 F2 | G2 A2 BF (A2- | %32
w: pa- nem, ac-|ce- pit Je-|* sus pa-|nem|ac- ce- pit|Je- sus|pa- nem, ac-|ce- pit Je- sus pa-|
 A2 GF G4) ||[M:3/4][Q:3/4=70] A2 B4 | c2 c2 c2- | c2 B2 B2 | c4 c2 | z2 B4 | d2 d2 d2- | %39
w: |nem, et|be- ne- di-|* xit ac-|fre- git|et|be- ne- di-|
 d2 c2 c2 | B6 | A6 | z2 E4 | A2 A2 A2- | A2 G2 G2 | F2 E2 E2 | F2 F2 F2- | F2 E2 E2 | (E2 ^D4 || %49
w: * xit ac-|fre-|git|et|be- ne- di-|* xit ac-|fre- git, et|be- ne- di-|* xit ac-|fre- *|
[M:2/2][Q:1/4=100] EFGA B4- | B4) B4 | z8 | z4 B4- | B2 B2 F2 F2 | A2 A2 (E3 F | GA) B4 (F2- | %56
w: |* git||de-|* dit- que dis-|ci- pu- lis _|_ _ su- is|
 FG) (A4 GF) | G8 | B4 F4 | A4 G4 | (F2 E3 ^D/C/ D2) | E2 B2 c3 c | c2 B2 A3 A | A2 G2 A3 A | %64
w: _ _ su- * *|is|dis- ci-|pu- lis|su- * * * *|is: Ac- ci- pi-|te, ac- ci- pi-|te, ac- ci- pi-|
 A2 G2 A3 A | A2 G2 A2 G2 | F4 G2 c2 | d3 d d2 B2 | A2 (A3 G/F/) G2 | A2 A2 A2 G2 | F8 | F4 z4 | %72
w: te, ac- ci- pi-|te et man- du-|ca- te, ac-|ci- pi- te et|man- du- * * ca-|te et man- du-|ca-|te,|
[Q:1/4=85] G6 G2 | A4 B2 B2- | B2 B2 d4 | d4 B2 (B2- | B2 ^AG) A4 | B4 z4 |[Q:1/4=75] B6 B2 | %79
w: Hoc est|e- nim, hoc|_ est e-|nim cor- pus|_ _ _ me-|um.|Hoc est|
 c4 c4 | A4 G2 (A2- | A2 G2 F4) | !fermata!G8 |] %83
w: e- nim|cor- pus me-||um.|
V:2
 z4 A,4- | A,4 D4- | D2 D2 E4 | F3 E (D2 C2 | B,2 A,2 B,4 | C8) | D2 A3 G (F2 | E3 D C4) | %8
w: Coe-|* nan-|* ti- bus|au- tem il- *|||lis, au- tem il-||
 D2 E2 D2 (C2- | C2 B,A, B,4) | C2 (A,B, CDEF | G2 A2- AG/F/ G2) | A2 E3 D (C2 | D2) B,2 A,3 B, | %14
w: lis, au- tem il-||lis, il- * * * * *||lis, au- tem il-|* lis au- tem|
 (CD E2 C4) | D2 E2 F2 (B,2- | B,CDB, C2 B,C | DEFG A3 G/F/ | E2 F2- FEDC | B,4) C4 | %20
w: il- * * *|lis, au- tem il-||||* lis,|
 D3 C (B,2 C2 | B,8) | B,4 z4 | z2 C2 D2 E2 | z2 A,2 B,2 C2 | D6 C2 | B,4 A,2 z2 | z2 E2 F2 G2 | %28
w: au- tem il- *||lis.|ac- ce- pit,|ac- ce- pit|Je- sus|pa- nem,|ac- ce- pit|
 A6 G2 | F4 E4 | z4 z2 A,2 | B,2 C2 D2 E2 | E8 ||[M:3/4] E6 | z6 | z2 G4 | A2 A2 A2- | A2 G2 G2 | %38
w: Je- sus|pa- nem,|ac-|ce- pit Je- sus|pa-|nem,||et|be- ne- di-|* xit ac-|
 F6 | E6 | z2 E4 | E2 E2 E2- | E2 E2 E2 | C3 B, C^D | E6 | D2 C4 | D2 D2 D2- | D2 B,2 C2 | B,6 || %49
w: fre-|git|et|be- ne- di-|* xit ac-|fre- * * *||git et|be- ne- di-|* xit ac-|fre-|
[M:2/2] B,2 E4 E2 | B,2 B,2 D2 D2 | (A,3 B, CD) (E2- | ED C2) B,4 | z2 F4 F2 | C2 C2 C2 E2 | %55
w: git de- dit-|que dis- cí- pu-|lis _ _ _ su-|* * * is|de- dit-|que dis- ci- pu-|
 (B,3 C DE) (F2- | FE D2) C4 | E4 B,4 | D4 (A,3 B, | CD) E4 E2 | D2 C2 B,4- | B,4 E4 | z2 E2 C3 C | %63
w: lis _ _ _ su-|* * * is,|dis- ci-|pu- lis _|_ _ su- is|su- is, su-|* is:|Ac- ci- pi-|
 C2 E2 F3 F | F2 E2 E2 E2 | E4 E4 | z4 z2 A2 | A3 A A2 G2 | F2 F2 E4 | E2 E2 F2 E2 | (D2 CB, C4) | %71
w: te, ac- ci- pi-|te et man- du-|ca- te|ac-|ci- pi- te et|man- du- ca-|te, et man- du-|ca- * * *|
 ^D4 z4 | E6 E2 | F4 F4 | G4 A2 (F2- | F2 ED E4) | F8- | F4 z4 | F6 F2 | A4 A4 | F4 E2 (E2- | %81
w: te,|Hoc est|e- nim,|cor- pus me-||um.|_|Hoc est|e- nim|cor- pus me-|
 E2 ^DC D4) | !fermata!E8 |] %83
w: |um.|
V:3
 z8 | z8 | z8 | z8 | z4 E4- | E4 A4- | A2 A2 B4 | c3 B (A2 G2 | F2 E2 FG A2- | A2 GF G4) | %10
w: ||||Coe-|* nan-|* ti- bus|au- tem il- *|||
 A2 e3 d c2 | B2 e4 e2- | e2 (AB cd e2- | e2 d2) e4 | z4 A4- | A4 d4- | d2 d2 e4 | f3 e (d2 c2- | %18
w: lis, au- tem il-|lis, au- tem|_ il- * * * *|* * lis,|coe-|* nan-|* ti- bus|au- tem il- *|
 cBAG) F2 (B2- | BAGF E2) A2 | (FGAF G2 A2 | G2 FE F4) | E2 E2 F2 G2 | A6 G2 | F4 E4 | z4 z2 E2 | %26
w: * * * * lis, au-|* * * * * tem|il- * * * * *||lis. ac- ce- pit|Je- sus|pa- nem,|ac-|
 F2 G2 A2 B2 | (c4 B4) | c4 z2 E2 | F2 G2 A4- | A2 G2 F4 | E4 B2 c2 | B8 ||[M:3/4] c2 e4 | %34
w: ce- pit Je- sus|pa- *|nem, ac-|ce- pit Je-|* sus pa-|nem, Je- sus|pa-|nem, et|
 e2 e2 e2- | e2 e2 e2 | c3 B c^d | e6 | B6 | z6 | z2 B4 | c2 c2 c2- | c2 B2 B2 | A6 | B6 | z2 A4 | %46
w: be- ne- di-|* xit ac-|fre- * * *||git||et|be- ne- di-|* xit ac-|fre-|git|et|
 A2 A2 A2- | A2 G2 A2 | F6 ||[M:2/2] E4 z4 | z2 B4 B2 | F2 F2 A2 A2 | (E3 F GABc) | d4 c4 | %54
w: be- ne- di-|* xit ac-|fre-|git|de- dit|que dis- ci- pu-|lis _ _ _ _ _|su- is|
 z2 c4 c2 | G2 G2 B2 B2 | (F3 G AB) c2- | c2 G4 B2- | B2 F4 A2- | A2 (E3 FGE | FG) (A2 GF/E/ F2) | %61
w: de- dit-|que dis- ci- pu-|lis _ _ _ su-|* is, dis-|* ci- pu-|* lis _ _ _|_ _ su- * * * *|
 G2 G2 A3 A | A2 G2 A3 A | A2 B2 d3 d | d2 B2 c3 c | c2 B2 c2 (e2- | e^d/c/) d2 e2 e2 | %67
w: is: Ac- ci- pi-|te, ac- ci- pi-|te, ac- ci- pi-|te, ac- ci- pi-|te, et man- du-|* * * ca- te, ac-|
 f3 f f2 e2 | c2 d2 B4 | c2 c2 d2 (B2- | B2 ^AG) A4 | B4 z4 | B6 B2 | d4 d4 | e4 A4 | (B8 | c8) | %77
w: ci- pi- te et|man- du- ca-|te, et man- du-|* * * ca-|te,|Hoc est|e- nim|cor- pus|me-||
 d4 z4 | d6 d2 | e4 c2 e2 | (d3 c B2) c2 | B8 | !fermata!B8 |] %83
w: um.|Hoc est|e- * nim|cor- * * pus|me-|um|
V:4
 z8 | z8 | z8 | z8 | z8 | A,,8 | D,6 D,2 | E,4 F,3 E, | (D,2 C,2 B,,2 A,,2 | E,8) | A,,4 z4 | E,8 | %12
w: |||||Coe-|nan- ti-|bus au- tem|il- * * *||lis.|Coe-|
 A,6 A,2 | B,4 C3 B, | A,2 G,2 F,2 E,2 | D,2 C,2 B,,4- | B,,4 A,,2 E,2 | (B,,C,D,E, F,G, A,2- | %18
w: nan- ti-|bus au- tem|il- lis, au- tem|il- * lis,|_ au- tem|il- * * * * * *|
 A,G,F,E, D,C,) B,,2 | E,3 D, (C,B,, A,,2) | D,4 E,2 A,,2 | B,,8 | E,4 z4 | z2 A,,2 B,,2 C,2 | %24
w: * * * * * * lis,|au- tem il- * *|lis, au- tem|il|lis|ac- ce- pit|
 D,6 C,2 | B,,4 A,,4 | z2 E,2 F,2 G,2 | A,6 G,2 | F,4 E,4 | z4 z2 A,,2 | B,,2 C,2 (D,4- | %31
w: Je- sus|pa- nem,|ac- ce- pit|Je- sus|pa- nem,|ac-|ce- pit Je-|
 D,2 C,2 B,,2) A,,2 | E,8 ||[M:3/4] A,,2 E,4 | A,2 A,2 A,2- | A,2 G,2 G,2 | F,6 | E,2 E,4 | %38
w: * * * sus|pa-|nem, et|be- ne- di-|* xit ac-|fre-|git, ac-|
 D,3 E, F,G, | A,4 A,2 | z2 E,4 | A,2 A,2 A,2- | A,2 G,2 G,2 | F,6 | E,6 | z2 A,,4 | D,2 D,2 D,2- | %47
w: fre- * * *|* git,|et|be- ne- di-|* xit ac-|fre-|git|et|be- ne- di-|
 D,2 E,2 A,,2 | B,,6 ||[M:2/2] E,4 z2 E,2- | E,2 E,2 B,,2 B,,2 | D,2 D,2 (A,,3 B,, | %52
w: * xit ac-|fre-|git de-|* dit- que dis-|ci- pu- lis _|
 C,D,) (E,4 D,C,) | B,,4 F,4- | F,2 F,2 C,2 C,2 | E,2 E,2 (B,,3 C, | D,E,) (F,4 E,D,) | C,4 E,4 | %58
w: _ _ su- * *|is, de-|* dit- que dis-|ci- pu- lis _|_ _ su- * *|is, dis-|
 B,,4 D,4 | (A,,3 B,, C,D,E,C, | D,2 A,,2) (B,,4 | E,4) A,,4 | z2 E,2 F,3 F, | F,2 E,2 D,3 D, | %64
w: ci- pu-|lis _ _ _ _ _|_ _ su-|* is:|Ac- ci- pi-|te, ac- ci- pi-|
 D,2 E,2 A,3 A, | A,2 E,2 A,2 E,2 | B,4 E,2 A,2 | D,3 D, D,2 E,2 | F,2 D,2 E,4 | A,,2 A,2 D,2 E,2 | %70
w: te, ac- ci- pi-|te et man- du-|ca- te, ac-|ci- pi- te et|man- du- ca-|te, et man- du-|
 F,8 | B,,4 z4 | E,6 E,2 | D,4 B,,4 | E,4 D,4 | =G,8 | F,8 | B,,4 z4 | B,6 B,2 | A,8 | %80
w: ca-|te,|Hoc est|e- nim|cor- pus|me-||um.|Hoc est|e-|
 D,4 E,2 A,,2 | B,,8 | !fermata!E,8 |] %83
w: nim cor- pus|me-|um.|

